src/assets/outline/GallerySlash.svg

<svg width="24" height="24" viewBox="0 0 24 24"  xmlns="http://www.w3.org/2000/svg">
<path d="M3.38 20.85C3.17 20.85 2.95 20.76 2.81 20.58C1.74 19.33 1.25 17.55 1.25 15V9C1.25 3.57 3.57 1.25 9 1.25H15C17.39 1.25 19.14 1.7 20.38 2.63C20.71 2.88 20.78 3.35 20.53 3.68C20.28 4.01 19.81 4.08 19.48 3.83C18.51 3.1 17.05 2.75 15 2.75H9C4.39 2.75 2.75 4.39 2.75 9V15C2.75 17.15 3.14 18.66 3.95 19.62C4.22 19.94 4.18 20.41 3.86 20.68C3.72 20.79 3.55 20.85 3.38 20.85Z" />
<path d="M15 22.7499H9.00001C8.21001 22.7499 7.50001 22.6999 6.85001 22.6099C6.44001 22.5499 6.16001 22.1699 6.22001 21.7599C6.28001 21.3499 6.67001 21.0699 7.07001 21.1299C7.64001 21.2099 8.29001 21.2599 9.00001 21.2599H15C19.61 21.2599 21.25 19.6199 21.25 15.0099V8.99993C21.25 8.66993 21.24 8.33993 21.22 8.03993C21.19 7.62993 21.51 7.26993 21.92 7.23993C22.35 7.21993 22.69 7.52993 22.72 7.93993C22.74 8.27993 22.75 8.62993 22.75 8.99993V14.9999C22.75 20.4299 20.43 22.7499 15 22.7499Z" />
<path d="M8 10.75C6.48 10.75 5.25 9.52 5.25 8C5.25 6.48 6.48 5.25 8 5.25C9.52 5.25 10.75 6.48 10.75 8C10.75 9.52 9.52 10.75 8 10.75ZM8 6.75C7.31 6.75 6.75 7.31 6.75 8C6.75 8.69 7.31 9.25 8 9.25C8.69 9.25 9.25 8.69 9.25 8C9.25 7.31 8.69 6.75 8 6.75Z" />
<path d="M1.99994 22.7499C1.80994 22.7499 1.61994 22.6799 1.46994 22.5299C1.17994 22.2399 1.17994 21.7599 1.46994 21.4699L21.4699 1.46994C21.7599 1.17994 22.2399 1.17994 22.5299 1.46994C22.8199 1.75994 22.8199 2.23994 22.5299 2.52994L2.52994 22.5299C2.37994 22.6799 2.18994 22.7499 1.99994 22.7499Z" />
<path d="M11.9799 17.4301C11.5899 17.4301 11.1999 17.2801 10.9099 16.9901C10.6199 16.7001 10.6199 16.2201 10.9099 15.9301C11.1999 15.6401 11.6799 15.6401 11.9699 15.9301C11.9799 15.9401 11.9899 15.9401 11.9999 15.9301L17.0299 10.8901C18.0699 9.85011 19.8799 9.85011 20.9099 10.8901L22.5399 12.5201C22.8299 12.8101 22.8299 13.2901 22.5399 13.5801C22.2499 13.8701 21.7699 13.8701 21.4799 13.5801L19.8499 11.9501C19.3799 11.4801 18.5599 11.4801 18.0899 11.9501L13.0599 16.9901C12.7599 17.2801 12.3699 17.4301 11.9799 17.4301Z" />
</svg>

<?xml version="1.0" encoding="UTF-8"?>
<svg width="24" height="24" viewBox="0 0 24 24" xmlns="http://www.w3.org/2000/svg">
 <path d="m3.38 20.85c-0.21 0-0.43-0.09-0.57-0.27-1.07-1.25-1.56-3.03-1.56-5.58v-6c0-5.43 2.32-7.75 7.75-7.75h6c2.39 0 4.14 0.45 5.38 1.38 0.33 0.25 0.4 0.72 0.15 1.05s-0.72 0.4-1.05 0.15c-0.97-0.73-2.43-1.08-4.48-1.08h-6c-4.61 0-6.25 1.64-6.25 6.25v6c0 2.15 0.39 3.66 1.2 4.62 0.27 0.32 0.23 0.79-0.09 1.06-0.14 0.11-0.31 0.17-0.48 0.17z"/>
 <path d="m15 22.75h-6c-0.79 0-1.5-0.05-2.15-0.14-0.41-0.06-0.69-0.44-0.63-0.85s0.45-0.69 0.85-0.63c0.57 0.08 1.22 0.13 1.93 0.13h6c4.61 0 6.25-1.64 6.25-6.25v-6.01c0-0.33-0.01-0.66-0.03-0.96-0.03-0.41 0.29-0.77 0.7-0.8 0.43-0.02 0.77 0.29 0.8 0.7 0.02 0.34 0.03 0.69 0.03 1.06v6c0 5.43-2.32 7.75-7.75 7.75z"/>
 <path d="m8 10.75c-1.52 0-2.75-1.23-2.75-2.75s1.23-2.75 2.75-2.75 2.75 1.23 2.75 2.75-1.23 2.75-2.75 2.75zm0-4c-0.69 0-1.25 0.56-1.25 1.25s0.56 1.25 1.25 1.25 1.25-0.56 1.25-1.25-0.56-1.25-1.25-1.25z"/>
 <path d="m1.9999 22.75c-0.19 0-0.38-0.07-0.53-0.22-0.29-0.29-0.29-0.77 0-1.06l20-20c0.29-0.29 0.77-0.29 1.06 0s0.29 0.77 0 1.06l-20 20c-0.15 0.15-0.34 0.22-0.53 0.22z"/>
 <path d="m11.98 17.43c-0.39 0-0.78-0.15-1.07-0.44s-0.29-0.77 0-1.06 0.77-0.29 1.06 0c0.01 0.01 0.02 0.01 0.03 0l5.03-5.04c1.04-1.04 2.85-1.04 3.88 0l1.63 1.63c0.29 0.29 0.29 0.77 0 1.06s-0.77 0.29-1.06 0l-1.63-1.63c-0.47-0.47-1.29-0.47-1.76 0l-5.03 5.04c-0.3 0.29-0.69 0.44-1.08 0.44z"/>
</svg>
